X:1
T:Solitude, 86.86.88
T:Solitude, 86.86.88
T:Ebenezer Prout (1835–1909)
T:Public Domain Courtesy of the Cyber Hymnal™
C:Ebenezer Prout (1835–1909)
Z:Public Domain
Z:Courtesy of the Cyber Hymnal™
%%score ( 1 2 ) ( 3 4 )
L:1/8
Q:1/4=110
M:4/4
K:Eb
V:1 treble 
V:2 treble 
V:3 bass 
V:4 bass 
V:1
 [EG]2 | [DF]2 E2 [DA]2 [EG]2 | [Ec]3 [EF] [EF]2 [EG]2 | [GB]2 [FA]2 [EG]2 [DF]2 | [EG]6 [GB]2 | %5
 [Fc]2 [GB]2 [=Ae]2 [Bd]2 | [Gd]3 [Gc] [Gc]2 [GB]2 | [F=A]2 [FB]2 [Ed]2 [Ec]2 | [DB]6 [FB]2 | %9
 [=E_d]3 [Ed] [Fc]2 F2 | [=EB]3 [EB] [FA]2 [Gc]2 | [FB]2 [DA]2 [EG]2 [EA]2 | F6 E2 | E6 |] %14
V:2
 x2 | x2 E2 x4 | x8 | x8 | x8 | x8 | x8 | x8 | x8 | x6 F2 | x8 | x8 | (E4 D2) E2 | E6 |] %14
V:3
 [E,B,]2 | [A,B,]2 [G,B,]2 [F,B,]2 [E,B,]2 | A,3 [A,C] [A,C]2 [G,B,]2 | %3
 [F,C]2 [F,C]2 [B,,B,]2 [B,,B,]2 | [E,B,]6 [E,E]2 | [A,D]2 [G,E]2 [CE]2 [B,F]2 | %6
 [E,F]3 [E,E] [E,E]2 [=E,D]2 | [F,C]2 [F,D]2 [F,G,]2 [F,=A,]2 | [B,,B,]6 [B,D]2 | %9
 [G,B,]3 [G,B,] [A,C]2 [A,C]2 | [G,C]3 [G,C] [F,C]2 [E,G,]2 | [D,B,]2 [B,,F,]2 [A,,C]2 [C,E,]2 | %12
 (F,2 G,2 A,4) | [E,G,]6 |] %14
V:4
 x2 | x8 | A,3 x5 | x8 | x8 | x8 | x8 | x8 | x8 | x8 | x8 | x8 | B,,8 | x6 |] %14

